packages/icons/src/tara-logo.svg

<svg width="24" height="24" viewBox="0 0 24 24" fill="none" xmlns="http://www.w3.org/2000/svg">
<path d="M16.5373 11.9585C15.1629 11.9585 14.0748 13.0374 14.0748 14.3375V15.7206C14.0748 16.1355 13.903 16.5228 13.6166 16.7994C13.3303 17.0761 12.9294 17.242 12.4999 17.242C12.0704 17.242 11.6695 17.0761 11.3832 16.7994C11.0968 16.5228 10.925 16.1355 10.925 15.7206V14.4852V7.63959V4.37897C10.925 3.05117 9.80831 2 8.46252 2C7.08809 2 6 3.07883 6 4.37897V15.7206C6 17.4357 6.74448 19.0125 7.91847 20.1466C9.09246 21.2807 10.696 22 12.4999 22C14.2752 22 15.9074 21.2807 17.0814 20.1466C18.2553 19.0125 18.9999 17.4634 18.9999 15.7206V14.3375C18.9999 13.0096 17.8831 11.9585 16.5373 11.9585Z" fill="black"/>
<path d="M17.8685 8.4063C17.6582 8.93743 17.1586 9.34785 16.3961 9.34785C14.7923 9.34785 12.4522 9.37199 12.2944 11.3275C12.2419 11.9311 11.9789 12.5346 11.3479 12.8243C11.0359 12.9805 10.6324 13.0273 10.2357 12.9855C9.9491 12.9553 9.66253 12.8835 9.37595 12.7519C8.74492 12.4622 8.35054 11.9552 8.16649 11.3758C7.90356 10.6032 7.98244 9.68585 8.19278 8.91329C8.52334 7.72522 9.27458 7.01687 10.2357 6.59689C11.9502 5.8477 14.3325 6.01623 16.1858 6.01623C17.0798 6.01623 17.6319 6.47492 17.8685 7.03019C17.9474 7.24747 18 7.48889 18 7.73031C18 7.94759 17.9474 8.18902 17.8685 8.4063Z" fill="url(#paint0_linear_24_711)"/>
<defs>
<linearGradient id="paint0_linear_24_711" x1="7.99122" y1="9.49794" x2="18.0135" y2="9.49794" gradientUnits="userSpaceOnUse">
<stop offset="0.1043" stop-color="#222222" stop-opacity="0.5"/>
<stop offset="0.2769" stop-color="#222222" stop-opacity="0.6"/>
<stop offset="1" stop-color="#222222"/>
</linearGradient>
</defs>
</svg>

<svg xmlns="http://www.w3.org/2000/svg" width="24" height="24" fill="none" viewBox="0 0 24 24">
  <path fill="#000" d="M16.537 11.959c-1.374 0-2.462 1.078-2.462 2.379v1.383a1.5 1.5 0 0 1-.458 1.078 1.61 1.61 0 0 1-1.117.443c-.43 0-.83-.166-1.117-.443a1.5 1.5 0 0 1-.458-1.078V4.379C10.925 3.051 9.808 2 8.463 2 7.088 2 6 3.079 6 4.379v11.342c0 1.715.744 3.291 1.918 4.426A6.561 6.561 0 0 0 12.5 22c1.775 0 3.407-.72 4.581-1.853C18.255 19.013 19 17.463 19 15.72v-1.383c0-1.328-1.117-2.38-2.463-2.38Z"/>
  <path fill="url(#a)" d="M17.869 8.406c-.21.531-.71.942-1.473.942-1.604 0-3.944.024-4.102 1.98-.052.603-.315 1.207-.946 1.496-.312.156-.716.203-1.112.162a2.72 2.72 0 0 1-.86-.234 2.22 2.22 0 0 1-1.21-1.376c-.262-.773-.184-1.69.027-2.463.33-1.188 1.082-1.896 2.043-2.316 1.714-.75 4.096-.58 5.95-.58.894 0 1.446.458 1.683 1.013a2.1 2.1 0 0 1 .131.7c0 .218-.053.459-.131.676Z"/>
  <defs>
    <linearGradient id="a" x1="7.991" x2="18.014" y1="9.498" y2="9.498" gradientUnits="userSpaceOnUse">
      <stop offset=".104" stop-color="#222" stop-opacity=".5"/>
      <stop offset=".277" stop-color="#222" stop-opacity=".6"/>
      <stop offset="1" stop-color="#222"/>
    </linearGradient>
  </defs>
</svg>
